dist/assets/img/nhl/teams/ott.svg

<?xml version="1.0" encoding="UTF-8"?>
<svg width="512px" height="512px" viewBox="0 0 512 512" version="1.1" xmlns="http://www.w3.org/2000/svg" xmlns:xlink="http://www.w3.org/1999/xlink">
    <!-- Generator: Sketch 41.2 (35397) - http://www.bohemiancoding.com/sketch -->
    <title>ottawa-senators</title>
    <desc>Created with Sketch.</desc>
    <defs></defs>
    <g id="NHL" stroke="none" stroke-width="1" fill="none" fill-rule="evenodd">
        <g id="ottawa-senators">
            <g id="ott" transform="translate(106.000000, 85.000000)">
                <path d="M212.164286,126.621429 L179.292857,81.7071429 L168.621429,86.6571429 C168.621429,86.6571429 161.507143,83.9357143 149.228571,82.3071429 L156.942857,74.5285714 L156.942857,56.8714286 L151.5,56.8714286 C160.992857,41.4642857 146.014286,25.4785714 173.4,6.85714286 L102.621429,6.85714286 C49.1785714,24.8785714 62.4857143,125.185714 62.4857143,125.185714 L72.7285714,121.307143 C72.7285714,121.307143 66.3428571,134.7 69.0428571,144.771429 C69.0428571,144.771429 62.0142857,160.028571 70.5642857,174.6 L65.5071429,181.714286 L66.6,214.371429 C59.4642857,226.8 32.4857143,220.05 30,234 C28.95,239.892857 14.7,244.821429 14.7,244.821429 C-0.257142857,289.371429 113.614286,297.75 132.342857,325.178571 C185.980011,342.597327 243.94456,315.501341 264.979524,263.176514 C286.014489,210.851686 262.933304,151.17472 212.164286,126.621429 L212.164286,126.621429 Z" id="Shape" fill="#000000"></path>
                <path d="M107.485714,52.1357143 L102.235714,18.15 C64.6714286,34.1785714 69.6857143,111.107143 69.6857143,111.107143 L107.871429,55.6714286 L143.1,55.6714286 C149.185714,43.6071429 141.75,24.3857143 155.228571,16.1357143 L108.75,16.1357143 L107.485714,52.1357143 L107.485714,52.1357143 Z M95.85,282.385714 C111.235714,285.814286 131.807143,298.864286 131.807143,298.864286 C130.307143,293.421429 125.914286,288.192857 125.914286,288.192857 C110.467088,283.348821 96.3244532,275.053763 84.5571429,263.935714 L45.15,242.271429 C45.15,242.271429 68.6357143,242.4 66.5357143,225.021429 C56.3571429,232.5 36.8142857,229.585714 36.8142857,237.642857 C36.8142857,246.492857 52.3285714,255.492857 82.8428571,274.864286 L35.6357143,253.221429 L38.4642857,250.135714 L35.2071429,243.814286 C34.8642857,246.235714 22.8857143,246.278571 22.8857143,254.357143 C22.8857143,282.835714 123.664286,293.464286 142.157143,320.4 C144.342857,306.407143 116.785714,293.078571 95.85,282.385714 L95.85,282.385714 Z M218.721429,230.442857 C218.721429,230.442857 228.9,239.207143 228.9,242.228571 C228.9,245.271429 207.578571,257.85 207.578571,257.85 C214.735714,247.971429 220.521429,243.192857 220.521429,238.928571 C220.521429,234.707143 212.957143,233.55 210.921429,225.471429 C203.207143,237.9 202.821429,245.892857 202.821429,245.892857 L206.614286,271.907143 L196.285714,270.642857 C174.642857,292.264286 177.042857,316.007143 177.042857,316.007143 C190.65,276.642857 236.678571,276.085714 236.678571,238.907143 C233.207143,236.164286 218.721429,230.442857 218.721429,230.442857 L218.721429,230.442857 Z" id="Shape" fill="#CE1126"></path>
                <path d="M176.7,231.75 L183.171429,228.621429 L176.121429,201.15 L178.95,192.707143 L198.342857,185.25 L203.978571,187.65 L203.207143,178.821429 C203.207143,178.821429 197.657143,173.485714 191.207143,173.485714 C184.928571,173.485714 182.421429,177.985714 173.828571,188.4 C173.828571,188.4 168.878571,175.414286 148.714286,175.414286 C131.657143,175.414286 111.192857,183.364286 111.192857,183.364286 C107.592857,188.271429 108.064286,198.75 132.664286,196.907143 L129.171429,213.064286 L142.8,215.014286 C142.8,215.014286 125.442857,253.307143 134.978571,262.521429 C144.021429,271.221429 153.321429,280.585714 156.535714,280.585714 C169.221429,280.585714 177.214286,277.285714 178.778571,275.7 C179.485714,274.992857 179.978571,273.428571 179.978571,271.435714 C179.978571,264.342857 172.95,263.55 167.4,263.55 C155.442857,263.55 151.135714,267.728571 151.135714,267.728571 L153.407143,259.992857 C154.907143,254.335714 179.035714,257.314286 179.035714,257.314286 L178.478571,249.814286 L173.678571,250.542857 L163.542857,248.978571 L139.65,249.621429 L138.471429,248.742857 L166.971429,243.707143 L173.185714,244.971429 L178.542857,243.642857 L175.628571,241.05 L172.521429,242.271429 L171.921429,235.95 L154.928571,233.1 L168.321429,228.45 L176.7,231.75 L176.7,231.75 Z" id="Shape" fill="#FFFFFF"></path>
                <path d="M201.171429,195.342857 L195.771429,196.371429 C193.542857,205.35 187.178571,201.642857 186.192857,199.478571 L183.642857,208.778571 L187.907143,222.75 L191.464286,230.421429 L185.335714,235.564286 L190.092857,240.942857 L191.742857,244.821429 L198.664286,222.042857 L204.235714,212.914286 C205.221429,211.35 199.692857,200.442857 199.692857,200.442857 L201.171429,195.342857 L201.171429,195.342857 Z M148.585714,295.221429 L163.778571,305.614286 L167.785714,291.792857 L154.478571,289.885714 L148.585714,295.221429 Z" id="Shape" fill="#FFFFFF"></path>
                <path d="M267.107143,310.114286 C263.60408,310.114286 260.764286,312.95408 260.764286,316.457143 C260.764286,319.960206 263.60408,322.8 267.107143,322.8 C270.408566,322.528396 272.949609,319.76972 272.949609,316.457143 C272.949609,313.144566 270.408566,310.38589 267.107143,310.114286 L267.107143,310.114286 Z M267.107143,321.428571 C265.257034,321.550234 263.492954,320.632233 262.53098,319.047206 C261.569006,317.462179 261.569006,315.473535 262.53098,313.888508 C263.492954,312.303481 265.257034,311.385481 267.107143,311.507143 C269.720506,311.678996 271.752357,313.848849 271.752357,316.467857 C271.752357,319.086865 269.720506,321.256718 267.107143,321.428571 L267.107143,321.428571 Z" id="Shape" fill="#000000"></path>
                <path d="M269.7,314.978571 C269.705787,314.402813 269.479623,313.848949 269.07248,313.441806 C268.665336,313.034662 268.111473,312.808499 267.535714,312.814286 L264.492857,312.814286 L264.492857,320.057143 L265.821429,320.057143 L265.821429,317.142857 L266.807143,317.142857 L268.178571,320.078571 L269.657143,320.078571 L268.242857,317.014286 C269.11157,316.713977 269.69584,315.897717 269.7,314.978571 L269.7,314.978571 Z M267.535714,315.771429 L265.842857,315.771429 L265.842857,314.185714 L267.535714,314.185714 C267.985714,314.185714 268.328571,314.55 268.328571,314.978571 C268.328571,315.407143 268.007143,315.771429 267.535714,315.771429 L267.535714,315.771429 Z" id="Shape" fill="#000000"></path>
                <g id="Group" transform="translate(42.857143, 42.857143)" fill="#BF910C">
                    <path d="M163.564286,129.042857 L132.728571,111.385714 L71.0571429,132.385714 C71.0571429,132.385714 93.9,126.45 110.721429,126.45 C129.021429,126.45 132.214286,136.307143 132.214286,136.307143 C132.214286,136.307143 137.871429,126.107143 146.4,126.107143 C156.685714,126.107143 163.842857,132.107143 163.842857,132.107143 L163.564286,129.042857 Z M97.4785714,40.0714286 L102.642857,34.5857143 L75.8571429,34.5857143 L53.4857143,52.6285714 L73.2857143,29.4214286 L105.792857,29.4214286 L105.792857,19.9285714 L70.4571429,19.9285714 L38.85,62.7642857 L40.35,70.1357143 C40.35,70.1357143 57.7714286,40.0714286 97.4785714,40.0714286 L97.4785714,40.0714286 Z" id="Shape"></path>
                    <path d="M76.7571429,201.342857 C76.7571429,180.557143 81.8142857,159 81.8142857,159 C81.8142857,159 50.9357143,161.142857 56.4214286,135.085714 C56.4214286,135.085714 49.6928571,140.571429 43.5857143,138.192857 C43.5857143,138.192857 55.1785714,135.107143 55.1785714,122.464286 L58.2,131.678571 L138.364286,99.6642857 L169.928571,127.092857 L169.221429,114.75 C165.685714,116.035714 158.1,110.807143 158.1,110.807143 L159.257143,109.842857 C159.257143,109.842857 164.378571,112.478571 168.964286,110.592857 L168.257143,98.4214286 L133.542857,50.1428571 L125.657143,53.1 C125.657143,53.1 108.664286,45.9214286 92.1857143,45.9214286 C67.0071429,45.9214286 35.6571429,70.8214286 35.6571429,98.3357143 L52.5214286,99.5785714 L98.5714286,65.4 L52.2857143,110.678571 C52.2857143,110.678571 48.1928571,102.685714 42.3,102.685714 C38.25,102.685714 31.9928571,107.528571 31.9928571,119.4 C31.9928571,128.742857 36.5785714,133.307143 36.5785714,133.307143 L31.1785714,140.614286 C35.1428571,199.114286 28.5214286,205.092857 16.5,201.771429 L39.9857143,213.107143 C39.9857143,172.135714 38.4642857,159.685714 42.4714286,159.685714 C49.0714286,159.685714 48.3857143,200.421429 50.1214286,219.578571 C50.1214286,219.578571 67.0714286,239.228571 100.757143,242.442857 C100.778571,242.421429 76.7571429,227.164286 76.7571429,201.342857 L76.7571429,201.342857 Z M153.064286,210.171429 L149.121429,220.65 L155.228571,221.657143 L153.064286,210.171429 Z M179.592857,98.0571429 L179.592857,132.814286 C195.614297,145.777325 204.922668,165.283953 204.921429,185.892857 C204.891299,214.762486 186.76597,240.515022 159.6,250.285714 C148.435714,268.521429 151.542857,279.257143 152.935714,282.364286 C199.944566,274.312869 234.329749,233.586193 234.385714,185.892857 C234.349821,148.565682 213.101548,114.503629 179.592857,98.0571429 L179.592857,98.0571429 Z" id="Shape"></path>
                </g>
                <path d="M141.664286,150.878571 L139.285714,149.4 C123.107143,152.442857 125.871429,146.914286 121.928571,146.914286 C123.471429,145.392857 122.057143,142.392857 126.171429,138.278571 L125.807143,137.785714 C115.778571,143.742857 121.607143,147.407143 114.707143,151.007143 L114.964286,151.585714 C123.214286,148.8 120.192857,158.85 141.664286,150.878571 L141.664286,150.878571 Z" id="Shape" fill="#000000"></path>
                <path d="M152.378571,140.528571 L151.071429,139.992857 C139.392857,145.457143 139.435714,140.142857 137.1,140.871429 C138.3,138.857143 134.807143,136.414286 142.692857,128.828571 L142.585714,128.078571 C128.892857,137.185714 135.428571,140.742857 131.121429,145.071429 L131.528571,145.607143 C136.2,142.628571 136.542857,151.071429 152.378571,140.528571 Z M120.664286,158.207143 C120.664286,158.207143 119.228571,156.878571 117.557143,156.214286 C108.385714,157.157143 109.735714,153.535714 106.564286,153.685714 C109.392857,151.5 106.371429,149.742857 108.6,147.535714 L108.214286,147.064286 C99.9857143,151.692857 104.957143,154.65 100.157143,156.621429 L100.392857,157.2 C105.021429,155.807143 104.464286,163.328571 120.664286,158.207143 L120.664286,158.207143 Z M90.9214286,153.664286 C95.7,165.578571 87.15,173.914286 83.7,173.914286 C80.25,173.914286 78.1285714,169.585714 78.1285714,169.585714 C78.1285714,169.585714 80.7214286,178.071429 85.9714286,178.071429 C91.2214286,178.071429 101.164286,165.514286 90.9214286,153.664286 Z" id="Shape" fill="#000000"></path>
                <path d="M162.385714,130.135714 L161.507143,129.857143 C152.421429,134.7 151.821429,130.992857 150.45,131.378571 C151.414286,129.407143 147.321429,128.892857 153.192857,121.35 L152.957143,119.978571 C140.164286,131.314286 149.335714,131.678571 143.807143,136.307143 L144.407143,136.542857 C149.335714,132.514286 148.392857,140.807143 162.385714,130.135714 L162.385714,130.135714 Z M112.692857,99.15 C81.5785714,114.578571 82.7142857,136.157143 82.7142857,136.157143 L92.8928571,136.628571 L112.071429,124.092857 C98.4214286,127.842857 76.4357143,126.171429 112.692857,99.15 L112.692857,99.15 Z M183.771429,132.192857 C167.078571,136.778571 165.728571,112.328571 170.421429,107.228571 C152.014286,119.035714 174.6,146.957143 183.771429,132.192857 Z M194.185714,143.507143 L193.264286,144.021429 C202.992857,154.5 203.035714,147.214286 206.442857,150.214286 L206.892857,149.442857 C204.128571,145.2 208.028571,141.321429 199.135714,132.085714 L199.092857,133.007143 C204.064286,139.521429 201.814286,143.014286 203.292857,145.714286 C200.935714,144.621429 200.485714,148.971429 194.185714,143.507143 L194.185714,143.507143 Z" id="Shape" fill="#000000"></path>
                <path d="M197.357143,140.528571 L197.764286,140.014286 C194.935714,135.171429 200.464286,134.1 192.857143,123.192857 L192.535714,124.607143 C195.964286,131.807143 193.028571,133.328571 193.821429,134.978571 C192.535714,134.635714 191.357143,137.185714 187.114286,132.171429 L186.385714,132.428571 C193.135714,143.314286 194.635714,136.564286 197.357143,140.528571 L197.357143,140.528571 Z M262.478571,236.935714 C261.321429,242.85 256.478571,237.321429 253.778571,251.207143 C255.878571,251.614286 257.721429,246.921429 260.442857,247.435714 C263.164286,247.971429 263.121429,253.028571 265.2,253.414286 C267.878571,239.55 261.321429,242.85 262.478571,236.935714 L262.478571,236.935714 Z" id="Shape" fill="#000000"></path>
                <ellipse id="Oval" fill="#000000" cx="262.5" cy="228.75" rx="5.07857143" ry="5.07857143"></ellipse>
                <path d="M222.514286,293.378571 C223.864286,295.007143 228.3,292.585714 230.057143,294.707143 C231.814286,296.85 228.578571,300.707143 229.928571,302.357143 C240.835714,293.357143 233.657143,291.75 238.328571,287.892857 C233.635714,291.75 233.442857,284.378571 222.514286,293.378571 L222.514286,293.378571 Z M254.978571,264.171429 C251.892857,269.378571 249.192857,262.542857 242.035714,274.735714 C243.857143,275.807143 247.157143,272.014286 249.557143,273.407143 C251.957143,274.8 250.221429,279.535714 252.042857,280.628571 C259.221429,268.435714 251.914286,269.378571 254.978571,264.171429 Z" id="Shape" fill="#000000"></path>
                <path d="M233.078571,284.914286 C234.685714,286.285714 238.628571,283.135714 240.707143,284.914286 C242.828571,286.714286 240.278571,291.085714 241.928571,292.478571 C251.121429,281.721429 243.771429,281.357143 247.692857,276.792857 C243.771429,281.357143 242.292857,274.157143 233.078571,284.914286 L233.078571,284.914286 Z M253.371429,205.007143 C256.328571,218.85 261.042857,213.235714 262.328571,219.15 C261.042857,213.235714 267.685714,216.428571 264.728571,202.607143 C262.65,203.057143 262.778571,208.092857 260.078571,208.65 C257.4,209.25 255.45,204.578571 253.371429,205.007143 Z M241.607143,182.228571 C248.892857,194.357143 251.55,187.5 254.657143,192.664286 C251.528571,187.5 258.835714,188.378571 251.55,176.228571 C249.75,177.321429 251.485714,182.035714 249.128571,183.471429 C246.771429,184.907143 243.428571,181.135714 241.607143,182.228571 Z" id="Shape" fill="#000000"></path>
                <path d="M248.442857,193.135714 C253.628571,206.292857 257.4,199.971429 259.607143,205.607143 C257.378571,199.971429 264.45,202.05 259.242857,188.892857 C257.271429,189.664286 258.235714,194.635714 255.664286,195.621429 C253.114286,196.65 250.435714,192.364286 248.442857,193.135714 L248.442857,193.135714 Z M259.992857,250.5 C257.871429,256.178571 254.014286,249.921429 249.042857,263.164286 C251.035714,263.892857 253.65,259.585714 256.242857,260.55 C258.814286,261.535714 257.957143,266.485714 259.928571,267.235714 C264.878571,253.992857 257.871429,256.178571 259.992857,250.5 L259.992857,250.5 Z M247.692857,180.75 C243.771429,176.164286 251.121429,175.842857 241.928571,165.064286 C240.321429,166.435714 242.828571,170.828571 240.728571,172.628571 C238.607143,174.428571 234.685714,171.257143 233.078571,172.628571 C242.292857,183.364286 243.771429,176.164286 247.692857,180.75 Z M236.528571,167.828571 C239.892857,163.414286 223.414286,157.778571 223.414286,157.778571 C223.414286,157.778571 233.142857,172.242857 236.528571,167.828571 Z M209.378571,300.428571 C210.407143,302.292857 215.185714,300.75 216.514286,303.171429 C217.842857,305.592857 213.921429,308.785714 214.928571,310.65 C227.357143,303.921429 220.628571,300.964286 225.942857,298.071429 C220.628571,300.942857 221.85,293.678571 209.378571,300.428571 Z" id="Shape" fill="#000000"></path>
                <path d="M196.371429,310.521429 C196.371429,310.521429 213.792857,310.885714 212.142857,305.592857 C210.471429,300.3 196.371429,310.521429 196.371429,310.521429 Z M112.907143,188.678571 L140.014286,192.471429 C140.914286,197.014286 147.964286,201.3 152.871429,194.421429 L160.285714,196.542857 L154.328571,201.214286 L165.75,202.778571 L170.228571,193.971429 L144.428571,183.492857 L112.907143,188.678571 L112.907143,188.678571 Z" id="Shape" fill="#000000"></path>
            </g>
        </g>
    </g>
</svg>

<svg width="512" height="512" viewBox="0 0 512 512" xmlns="http://www.w3.org/2000/svg"><title>ottawa-senators</title><g transform="translate(106 85)" fill="none" fill-rule="evenodd"><path d="M212.164 126.621l-32.871-44.914-10.672 4.95s-7.114-2.721-19.392-4.35l7.714-7.778V56.87H151.5c9.493-15.407-5.486-31.392 21.9-50.014h-70.779C49.18 24.88 62.486 125.186 62.486 125.186l10.243-3.879s-6.386 13.393-3.686 23.464c0 0-7.029 15.258 1.521 29.829l-5.057 7.114 1.093 32.657C59.464 226.8 32.486 220.05 30 234c-1.05 5.893-15.3 10.821-15.3 10.821-14.957 44.55 98.914 52.929 117.643 80.358 53.637 17.418 111.602-9.678 132.637-62.002 21.034-52.325-2.047-112.002-52.816-136.556z" fill="#000"/><path d="M107.486 52.136l-5.25-33.986c-37.565 16.029-32.55 92.957-32.55 92.957l38.185-55.436H143.1c6.086-12.064-1.35-31.285 12.129-39.535H108.75l-1.264 36zM95.85 282.386c15.386 3.428 35.957 16.478 35.957 16.478-1.5-5.443-5.893-10.671-5.893-10.671a106.714 106.714 0 0 1-41.357-24.257L45.15 242.27s23.486.129 21.386-17.25c-10.179 7.479-29.722 4.565-29.722 12.622 0 8.85 15.515 17.85 46.029 37.221l-47.207-21.643 2.828-3.085-3.257-6.322c-.343 2.422-12.321 2.465-12.321 10.543 0 28.479 100.778 39.107 119.271 66.043 2.186-13.993-25.371-27.321-46.307-38.014zm122.871-51.943s10.179 8.764 10.179 11.786c0 3.042-21.321 15.621-21.321 15.621 7.157-9.879 12.942-14.657 12.942-18.921 0-4.222-7.564-5.379-9.6-13.458-7.714 12.429-8.1 20.422-8.1 20.422l3.793 26.014-10.328-1.264c-21.643 21.621-19.243 45.364-19.243 45.364 13.607-39.364 59.636-39.921 59.636-77.1-3.472-2.743-17.958-8.464-17.958-8.464z" fill="#CE1126"/><path d="M176.7 231.75l6.471-3.129-7.05-27.471 2.829-8.443 19.393-7.457 5.636 2.4-.772-8.829s-5.55-5.335-12-5.335c-6.278 0-8.786 4.5-17.378 14.914 0 0-4.95-12.986-25.115-12.986-17.057 0-37.521 7.95-37.521 7.95-3.6 4.907-3.129 15.386 21.471 13.543l-3.493 16.157 13.629 1.95s-17.357 38.293-7.821 47.507c9.042 8.7 18.342 18.065 21.557 18.065 12.685 0 20.678-3.3 22.243-4.886.707-.707 1.2-2.271 1.2-4.264 0-7.093-7.029-7.886-12.579-7.886-11.957 0-16.264 4.179-16.264 4.179l2.271-7.736c1.5-5.657 25.629-2.679 25.629-2.679l-.557-7.5-4.8.729-10.136-1.564-23.893.642-1.179-.878 28.5-5.036 6.215 1.264 5.357-1.328-2.914-2.593-3.108 1.221-.6-6.321-16.992-2.85 13.392-4.65 8.379 3.3z" fill="#FFF"/><path d="M201.171 195.343l-5.4 1.028c-2.228 8.979-8.592 5.272-9.578 3.108l-2.55 9.3 4.264 13.971 3.557 7.671-6.128 5.143 4.757 5.379 1.65 3.878 6.921-22.778 5.572-9.129c.985-1.564-4.543-12.471-4.543-12.471l1.478-5.1zm-52.585 99.878l15.193 10.393 4.007-13.821-13.307-1.907-5.893 5.335z" fill="#FFF"/><path d="M267.107 310.114a6.343 6.343 0 0 0 0 12.686 6.364 6.364 0 0 0 0-12.686zm0 11.315a4.971 4.971 0 1 1-.652-9.922 4.971 4.971 0 0 1 .652 9.922z" fill="#000"/><path d="M269.7 314.979a2.143 2.143 0 0 0-2.164-2.165h-3.043v7.243h1.328v-2.914h.986l1.372 2.936h1.478l-1.414-3.065a2.164 2.164 0 0 0 1.457-2.035zm-2.164.792h-1.693v-1.585h1.693c.45 0 .793.364.793.793a.778.778 0 0 1-.793.792z" fill="#000"/><g fill="#BF910C"><path d="M206.421 171.9l-30.835-17.657-61.672 21s22.843-5.936 39.665-5.936c18.3 0 21.492 9.857 21.492 9.857s5.658-10.2 14.186-10.2c10.286 0 17.443 6 17.443 6l-.279-3.064zm-66.085-88.971l5.164-5.486h-26.786L96.343 95.486l19.8-23.207h32.507v-9.493h-35.336L81.707 105.62l1.5 7.372s17.422-30.064 57.129-30.064z"/><path d="M119.614 244.2c0-20.786 5.057-42.343 5.057-42.343S93.793 204 99.28 177.943c0 0-6.729 5.486-12.836 3.107 0 0 11.593-3.086 11.593-15.729l3.021 9.215 80.164-32.015 31.565 27.429-.707-12.343c-3.536 1.286-11.122-3.943-11.122-3.943l1.157-.964s5.122 2.636 9.707.75l-.707-12.171L176.4 93l-7.886 2.957s-16.993-7.178-33.471-7.178c-25.179 0-56.529 24.9-56.529 52.414l16.865 1.243 46.05-34.179-46.286 45.279s-4.093-7.993-9.986-7.993c-4.05 0-10.307 4.843-10.307 16.714 0 9.343 4.586 13.907 4.586 13.907l-5.4 7.307c3.964 58.5-2.657 64.479-14.679 61.158l23.486 11.335c0-40.971-1.522-53.421 2.486-53.421 6.6 0 5.914 40.736 7.65 59.893 0 0 16.95 19.65 50.635 22.864.022-.021-24-15.279-24-41.1zm76.307 8.829l-3.942 10.478 6.107 1.007-2.165-11.485zm26.529-112.115v34.757a68.271 68.271 0 0 1 25.329 53.079c-.03 28.87-18.156 54.622-45.322 64.393-11.164 18.236-8.057 28.971-6.664 32.078 47.009-8.051 81.394-48.778 81.45-96.471-.036-37.327-21.284-71.39-54.793-87.836z"/></g><path d="M141.664 150.879l-2.378-1.479c-16.179 3.043-13.415-2.486-17.357-2.486 1.542-1.521.128-4.521 4.242-8.635l-.364-.493c-10.028 5.957-4.2 9.621-11.1 13.221l.257.579c8.25-2.786 5.229 7.264 26.7-.707z" fill="#000"/><path d="M152.379 140.529l-1.308-.536c-11.678 5.464-11.635.15-13.971.878 1.2-2.014-2.293-4.457 5.593-12.042l-.107-.75c-13.693 9.107-7.157 12.664-11.465 16.992l.408.536c4.671-2.978 5.014 5.464 20.85-5.078zm-31.715 17.678s-1.435-1.328-3.107-1.993c-9.171.943-7.821-2.678-10.993-2.528 2.829-2.186-.193-3.943 2.036-6.15l-.386-.472c-8.228 4.629-3.257 7.586-8.057 9.557l.236.579c4.628-1.393 4.071 6.129 20.271 1.007zm-29.743-4.543c4.779 11.915-3.771 20.25-7.221 20.25s-5.571-4.328-5.571-4.328 2.592 8.485 7.842 8.485 15.193-12.557 4.95-24.407z" fill="#000"/><path d="M162.386 130.136l-.879-.279c-9.086 4.843-9.686 1.136-11.057 1.522.964-1.972-3.129-2.486 2.743-10.029l-.236-1.371c-12.793 11.335-3.621 11.7-9.15 16.328l.6.236c4.929-4.029 3.986 4.264 17.979-6.407zM112.693 99.15c-31.114 15.429-29.979 37.007-29.979 37.007l10.179.472 19.178-12.536c-13.65 3.75-35.635 2.078.622-24.943zm71.078 33.043c-16.692 4.586-18.042-19.864-13.35-24.964-18.407 11.807 4.179 39.728 13.35 24.964zm10.415 11.314l-.922.514c9.729 10.479 9.772 3.193 13.179 6.193l.45-.771c-2.764-4.243 1.136-8.122-7.757-17.357l-.043.921c4.971 6.514 2.721 10.007 4.2 12.707-2.357-1.093-2.807 3.257-9.107-2.207z" fill="#000"/><path d="M197.357 140.529l.407-.515c-2.828-4.843 2.7-5.914-4.907-16.821l-.321 1.414c3.428 7.2.493 8.722 1.285 10.372-1.285-.343-2.464 2.207-6.707-2.808l-.728.258c6.75 10.885 8.25 4.135 10.971 8.1zm65.122 96.407c-1.158 5.914-6 .385-8.7 14.271 2.1.407 3.942-4.286 6.664-3.771 2.721.535 2.678 5.593 4.757 5.978 2.679-13.864-3.879-10.564-2.721-16.478z" fill="#000"/><ellipse fill="#000" cx="262.5" cy="228.75" rx="5.079" ry="5.079"/><path d="M222.514 293.379c1.35 1.628 5.786-.793 7.543 1.328 1.757 2.143-1.478 6-.128 7.65 10.907-9 3.728-10.607 8.4-14.464-4.693 3.857-4.886-3.514-15.815 5.486zm32.465-29.208c-3.086 5.208-5.786-1.628-12.943 10.565 1.821 1.071 5.121-2.722 7.521-1.329 2.4 1.393.664 6.129 2.486 7.222 7.178-12.193-.129-11.25 2.936-16.458z" fill="#000"/><path d="M233.079 284.914c1.607 1.372 5.55-1.778 7.628 0 2.122 1.8-.428 6.172 1.222 7.565 9.192-10.758 1.842-11.122 5.764-15.686-3.922 4.564-5.4-2.636-14.614 8.121zm20.292-79.907c2.958 13.843 7.672 8.229 8.958 14.143-1.286-5.914 5.357-2.721 2.4-16.543-2.079.45-1.95 5.486-4.65 6.043-2.679.6-4.629-4.071-6.708-3.643zm-11.764-22.778c7.286 12.128 9.943 5.271 13.05 10.435-3.128-5.164 4.179-4.285-3.107-16.435-1.8 1.092-.064 5.807-2.421 7.242-2.358 1.436-5.7-2.335-7.522-1.242z" fill="#000"/><path d="M248.443 193.136c5.186 13.157 8.957 6.835 11.164 12.471-2.228-5.636 4.843-3.557-.364-16.714-1.972.771-1.007 5.743-3.579 6.728-2.55 1.029-5.228-3.257-7.221-2.485zm11.55 57.364c-2.122 5.679-5.979-.579-10.95 12.664 1.993.729 4.607-3.578 7.2-2.614 2.571.986 1.714 5.936 3.686 6.686 4.95-13.243-2.058-11.057.064-16.736zm-12.3-69.75c-3.922-4.586 3.428-4.907-5.764-15.686-1.608 1.372.9 5.765-1.2 7.565-2.122 1.8-6.043-1.372-7.65 0 9.214 10.735 10.692 3.535 14.614 8.121zm-11.164-12.921c3.364-4.415-13.115-10.05-13.115-10.05s9.729 14.464 13.115 10.05zm-27.15 132.6c1.028 1.864 5.807.321 7.135 2.742 1.329 2.422-2.593 5.615-1.585 7.479 12.428-6.729 5.7-9.686 11.014-12.579-5.314 2.872-4.093-4.392-16.564 2.358z" fill="#000"/><path d="M196.371 310.521s17.422.365 15.772-4.928c-1.672-5.293-15.772 4.928-15.772 4.928zM112.907 188.68l27.107 3.792c.9 4.543 7.95 8.829 12.857 1.95l7.415 2.122-5.957 4.671 11.421 1.565 4.479-8.808-25.8-10.478-31.522 5.186z" fill="#000"/></g></svg>
